img/protractor.svg

<svg version="1.1" xmlns="http://www.w3.org/2000/svg" xmlns:xlink="http://www.w3.org/1999/xlink" width="149" height="149"><defs/><g><rect fill="black" stroke="none" x="0" y="0" width="149" height="149"/><g/><path fill="none" stroke="rgb(128,128,128)" paint-order="fill stroke markers" d=" M 143.0080560519367 76.84228991680003 A 68.86995009103667 68.86995009103667 0 1 1 143.00802161696453 76.77341997818728 M 113.53876969220006 20.356382620600016 L 107.81774569273183 28.558204637536768" stroke-miterlimit="10" stroke-dasharray=""/><g transform="translate(107.81774569273183,28.558204637536768) rotate(34.89696299914845,0,0)"><text fill="rgb(128,128,128)" stroke="none" font-family="Arial" font-size="10px" font-style="normal" font-weight="bold" text-decoration="normal" x="0" y="0" text-anchor="middle" dominant-baseline="text-before-edge">0</text></g><path fill="none" stroke="rgb(128,128,128)" paint-order="fill stroke markers" d=" M 118.31190947649253 24.005322663675898 L 115.10486464364448 27.841318419682757 M 122.74885994315952 28.05638393138117 L 117.10218775385167 33.72340194674846 M 126.81585322004574 32.47873540137092 L 122.99141693183057 35.699556271488184 M 130.48193703259642 37.23872030866968 L 123.93698313067344 41.8391092511074 M 133.7192102693561 42.30011229397547 L 129.3935860871331 44.807895265878635 M 136.50303532627402 47.624391108128044 L 127.44757219860571 51.86686533237969" stroke-miterlimit="10" stroke-dasharray=""/><g transform="translate(127.44757219860571,51.86686533237969) rotate(64.89696299914844,0,0)"><text fill="rgb(128,128,128)" stroke="none" font-family="Arial" font-size="10px" font-style="normal" font-weight="bold" text-decoration="normal" x="0" y="0" text-anchor="middle" dominant-baseline="text-before-edge">30</text></g><path fill="none" stroke="rgb(128,128,128)" paint-order="fill stroke markers" d=" M 138.81222561374756 53.17103577446428 L 134.1168454394221 54.88958313155149 M 140.62920679936173 58.89783297791773 L 132.90553622889442 60.98227844827595 M 141.94015055917086 64.76119833383541 L 137.01768114336284 65.63829288428848 M 142.73507981959327 70.716508091462 L 134.76678900271102 71.42808483194061 M 143.00794468896572 76.71843874762762 L 138.00795277398473 76.72743041736229 M 142.75666850087202 82.721311985974 L 132.79317027715217 81.86767087524244" stroke-miterlimit="10" stroke-dasharray=""/><g transform="translate(132.79317027715217,81.86767087524244) rotate(94.89696299914844,0,0)"><text fill="rgb(128,128,128)" stroke="none" font-family="Arial" font-size="10px" font-style="normal" font-weight="bold" text-decoration="normal" x="0" y="0" text-anchor="middle" dominant-baseline="text-before-edge">60</text></g><path fill="none" stroke="rgb(128,128,128)" paint-order="fill stroke markers" d=" M 141.98316361882826 88.67944231652339 L 137.05757142889303 87.8200578982048 M 140.6933168820418 94.54748476984285 L 132.96219922237574 92.49083221474282 M 138.89694480301034 100.28077999964172 L 134.1954139643421 98.57913145395095 M 136.60771885793443 105.83569416736289 L 129.35118821553286 102.46779229291838 M 133.8430614385285 111.16995102204115 L 129.50844558657082 108.67774207896332 M 130.62401325710005 116.24295364810004 L 122.4221912401633 110.52192964863181" stroke-miterlimit="10" stroke-dasharray=""/><g transform="translate(122.4221912401633,110.52192964863181) rotate(124.89696299914846,0,0)"><text fill="rgb(128,128,128)" stroke="none" font-family="Arial" font-size="10px" font-style="normal" font-weight="bold" text-decoration="normal" x="0" y="0" text-anchor="middle" dominant-baseline="text-before-edge">90</text></g><path fill="none" stroke="rgb(128,128,128)" paint-order="fill stroke markers" d=" M 126.97507321402418 121.01609343239251 L 123.13907745801731 117.80904859954445 M 122.92401194631891 125.45304389905948 L 117.25699393095162 119.80637170975164 M 118.50166047632916 129.52003717594573 L 115.28083960621188 125.69560088773054 M 113.7416755690304 133.18612098849638 L 109.14128662659267 126.6411670865734 M 108.68028358372462 136.42339422525606 L 106.17250061182145 132.09777004303305 M 103.35600476957205 139.207219282174 L 99.1135305453204 130.15175615450568" stroke-miterlimit="10" stroke-dasharray=""/><g transform="translate(99.1135305453204,130.15175615450568) rotate(154.89696299914843,0,0)"><text fill="rgb(128,128,128)" stroke="none" font-family="Arial" font-size="10px" font-style="normal" font-weight="bold" text-decoration="normal" x="0" y="0" text-anchor="middle" dominant-baseline="text-before-edge">120</text></g><path fill="none" stroke="rgb(128,128,128)" paint-order="fill stroke markers" d=" M 97.80936010323582 141.51640956964752 L 96.09081274614861 136.82102939532206 M 92.08256289978235 143.33339075526172 L 89.99811742942413 135.60972018479438 M 86.21919754386468 144.64433451507082 L 85.3421029934116 139.7218650992628 M 80.26388778623809 145.43926377549323 L 79.55231104575948 137.47097295861101 M 74.26195713007249 145.71212864486571 L 74.25296546033782 140.71213672988472 M 68.25908389172608 145.46085245677202 L 69.11272500245764 135.49735423305214" stroke-miterlimit="10" stroke-dasharray=""/><g transform="translate(69.11272500245764,135.49735423305214) rotate(184.89696299914846,0,0)"><text fill="rgb(128,128,128)" stroke="none" font-family="Arial" font-size="10px" font-style="normal" font-weight="bold" text-decoration="normal" x="0" y="0" text-anchor="middle" dominant-baseline="text-before-edge">150</text></g><path fill="none" stroke="rgb(128,128,128)" paint-order="fill stroke markers" d=" M 62.30095356117669 144.68734757472825 L 63.160337979495296 139.761755384793 M 56.43291110785724 143.39750083794178 L 58.489563662957266 135.66638317827574 M 50.69961587805838 141.60112875891033 L 52.401264423749154 136.8995979202421 M 45.14470171033718 139.31190281383442 L 48.5126035847817 132.05537217143285 M 39.81044485565896 136.5472453944285 L 42.302653798736785 132.21262954247084 M 34.73744222960005 133.32819721300004 L 40.45846622906828 125.1263751960633" stroke-miterlimit="10" stroke-dasharray=""/><g transform="translate(40.45846622906828,125.1263751960633) rotate(214.89696299914846,0,0)"><text fill="rgb(128,128,128)" stroke="none" font-family="Arial" font-size="10px" font-style="normal" font-weight="bold" text-decoration="normal" x="0" y="0" text-anchor="middle" dominant-baseline="text-before-edge">180</text></g><path fill="none" stroke="rgb(128,128,128)" paint-order="fill stroke markers" d=" M 29.964302445307588 129.67925716992417 L 33.171347278155636 125.8432614139173 M 25.52735197864058 125.62819590221889 L 31.174024167948424 119.9611778868516 M 21.460358701754387 121.20584443222917 L 25.284794989969562 117.9850235621119 M 17.7942748892037 116.44585952493038 L 24.339228791126665 111.84547058249265 M 14.557001652444008 111.38446753962461 L 18.882625834667017 108.87668456772144 M 11.773176595526067 106.060188725472 L 20.828639723194378 101.81771450122037" stroke-miterlimit="10" stroke-dasharray=""/><g transform="translate(20.828639723194378,101.81771450122037) rotate(244.89696299914849,0,0)"><text fill="rgb(128,128,128)" stroke="none" font-family="Arial" font-size="10px" font-style="normal" font-weight="bold" text-decoration="normal" x="0" y="0" text-anchor="middle" dominant-baseline="text-before-edge">150</text></g><path fill="none" stroke="rgb(128,128,128)" paint-order="fill stroke markers" d=" M 9.463986308052554 100.5135440591358 L 14.159366482378019 98.79499670204859 M 7.647005122438358 94.78674685568234 L 15.370675692905692 92.7023013853241 M 6.336061362629252 88.92338149976466 L 11.258530778437283 88.0462869493116 M 5.541132102206845 82.96807174213808 L 13.509422919089076 82.25649500165946 M 5.268267232834361 76.96614108597248 L 10.268259147815364 76.9571494162378 M 5.519543420928059 70.9632678476261 L 15.483041644647919 71.81690895835764" stroke-miterlimit="10" stroke-dasharray=""/><g transform="translate(15.483041644647919,71.81690895835764) rotate(274.89696299914846,0,0)"><text fill="rgb(128,128,128)" stroke="none" font-family="Arial" font-size="10px" font-style="normal" font-weight="bold" text-decoration="normal" x="0" y="0" text-anchor="middle" dominant-baseline="text-before-edge">120</text></g><path fill="none" stroke="rgb(128,128,128)" paint-order="fill stroke markers" d=" M 6.293048302971826 65.0051375170767 L 11.218640492907078 65.8645219353953 M 7.58289503975827 59.13709506375724 L 15.314012699424339 61.19374761885728 M 9.379267118789755 53.40379983395834 L 14.080797957457989 55.105448379649104 M 11.668493063865661 47.848885666237166 L 18.92502370626724 51.21678754068168 M 14.433150483271575 42.51462881155891 L 18.76776633522927 45.00683775463674 M 17.65219866470003 37.441626185500034 L 25.854020681636783 43.162650184968264" stroke-miterlimit="10" stroke-dasharray=""/><g transform="translate(25.854020681636783,43.162650184968264) rotate(304.8969629991484,0,0)"><text fill="rgb(128,128,128)" stroke="none" font-family="Arial" font-size="10px" font-style="normal" font-weight="bold" text-decoration="normal" x="0" y="0" text-anchor="middle" dominant-baseline="text-before-edge">90</text></g><path fill="none" stroke="rgb(128,128,128)" paint-order="fill stroke markers" d=" M 21.301138707775905 32.66848640120757 L 25.137134463782765 35.87553123405562 M 25.352199975481163 28.23153593454058 L 31.019217990848453 33.878208123848424 M 29.77455144547097 24.16454265765431 L 32.995372315588234 27.988978945869484 M 34.534536352769685 20.498458845103677 L 39.13492529520741 27.043412747026643 M 39.59592833807552 17.261185608343965 L 42.103711309978685 21.586809790566974 M 44.9202071522281 14.477360551426024 L 49.16268137647973 23.53282367909435" stroke-miterlimit="10" stroke-dasharray=""/><g transform="translate(49.16268137647973,23.53282367909435) rotate(334.89696299914846,0,0)"><text fill="rgb(128,128,128)" stroke="none" font-family="Arial" font-size="10px" font-style="normal" font-weight="bold" text-decoration="normal" x="0" y="0" text-anchor="middle" dominant-baseline="text-before-edge">60</text></g><path fill="none" stroke="rgb(128,128,128)" paint-order="fill stroke markers" d=" M 50.46685181856432 12.168170263952518 L 52.185399175651526 16.863550438277983 M 56.193649022017766 10.351189078338336 L 58.27809449237599 18.074859648805663 M 62.057014377935445 9.040245318529216 L 62.93410892838851 13.962714734337254 M 68.01232413556203 8.245316058106809 L 68.72390087604063 16.213606874989054 M 74.01425479172762 7.97245118873434 L 74.0232464614623 12.972443103715342 M 80.017128030074 8.223727376828037 L 79.16348691934245 18.187225600547904" stroke-miterlimit="10" stroke-dasharray=""/><g transform="translate(79.16348691934245,18.187225600547904) rotate(364.89696299914846,0,0)"><text fill="rgb(128,128,128)" stroke="none" font-family="Arial" font-size="10px" font-style="normal" font-weight="bold" text-decoration="normal" x="0" y="0" text-anchor="middle" dominant-baseline="text-before-edge">30</text></g><path fill="none" stroke="rgb(128,128,128)" paint-order="fill stroke markers" d=" M 85.9752583606234 8.997232258871804 L 85.1158739423048 13.922824448807056 M 91.84330081394292 10.287078995658277 L 89.78664825884287 18.01819665532434 M 97.57659604374177 12.083451074689734 L 95.874947498051 16.784981913357974 M 103.13151021146288 14.372677019765618 L 99.76360833701837 21.629207662167204 M 108.46576706614118 17.137334439171568 L 105.97355812306336 21.471950291129254" stroke-miterlimit="10" stroke-dasharray=""/><rect fill="red" stroke="none" x="72.13810596090005" y="74.84228991680003" width="3" height="3"/><rect fill="rgb(255,0,255)" stroke="none" x="111.53876969220006" y="18.35638262060002" width="3" height="3"/><rect fill="red" stroke="none" x="72.13810596090005" y="74.84228991680003" width="3" height="3"/><rect fill="rgb(255,0,255)" stroke="none" x="111.53876969220006" y="18.35638262060002" width="3" height="3"/></g></svg>

<svg xmlns="http://www.w3.org/2000/svg" width="149" height="149"><path d="M0 0h149v149H0z"/><path fill="none" stroke="gray" paint-order="fill stroke markers" d="M143.008 76.842a68.87 68.87 0 1 1 0-.069m-29.47-56.417-5.72 8.202" stroke-miterlimit="10"/><text fill="gray" font-family="Arial" font-size="10" font-weight="bold" text-decoration="normal" text-anchor="middle" dominant-baseline="text-before-edge" transform="rotate(34.897 8.479 185.794)">0</text><path fill="none" stroke="gray" paint-order="fill stroke markers" d="m118.312 24.005-3.207 3.836m7.644.215-5.647 5.667m9.714-1.244-3.825 3.22m7.49 1.54-6.544 4.6m9.782.461-4.325 2.508m7.109 2.816-9.055 4.243" stroke-miterlimit="10"/><text fill="gray" font-family="Arial" font-size="10" font-weight="bold" text-decoration="normal" text-anchor="middle" dominant-baseline="text-before-edge" transform="rotate(64.897 22.936 126.158)">30</text><path fill="none" stroke="gray" paint-order="fill stroke markers" d="m138.812 53.171-4.695 1.719m6.512 4.008-7.723 2.084m9.034 3.78-4.922.876m5.717 5.079-7.968.711m8.24 5.29-4.999.01m4.749 5.993-9.964-.853" stroke-miterlimit="10"/><text fill="gray" font-family="Arial" font-size="10" font-weight="bold" text-decoration="normal" text-anchor="middle" dominant-baseline="text-before-edge" transform="rotate(94.897 28.82 101.885)">60</text><path fill="none" stroke="gray" paint-order="fill stroke markers" d="m141.983 88.68-4.925-.86m3.635 6.727-7.73-2.056m5.934 7.79-4.702-1.702m2.413 7.257-7.257-3.368m4.492 8.702-4.335-2.492m1.116 7.565-8.202-5.721" stroke-miterlimit="10"/><text fill="gray" font-family="Arial" font-size="10" font-weight="bold" text-decoration="normal" text-anchor="middle" dominant-baseline="text-before-edge" transform="rotate(124.897 32.38 87.195)">90</text><path fill="none" stroke="gray" paint-order="fill stroke markers" d="m126.975 121.016-3.836-3.207m-.215 7.644-5.667-5.647m1.245 9.714-3.221-3.824m-1.54 7.49-4.6-6.545m-.46 9.782-2.508-4.325m-2.817 7.11-4.242-9.056" stroke-miterlimit="10"/><text fill="gray" font-family="Arial" font-size="10" font-weight="bold" text-decoration="normal" text-anchor="middle" dominant-baseline="text-before-edge" transform="rotate(154.897 35.068 76.11)">120</text><path fill="none" stroke="gray" paint-order="fill stroke markers" d="m97.81 141.516-1.72-4.695m-4.007 6.512-2.085-7.723m-3.779 9.034-.877-4.922m-5.078 5.717-.712-7.968m-5.29 8.241-.009-5m-5.994 4.749.854-9.964" stroke-miterlimit="10"/><text fill="gray" font-family="Arial" font-size="10" font-weight="bold" text-decoration="normal" text-anchor="middle" dominant-baseline="text-before-edge" transform="rotate(-175.103 37.453 66.271)">150</text><path fill="none" stroke="gray" paint-order="fill stroke markers" d="m62.301 144.687.86-4.925m-6.728 3.636 2.057-7.732m-7.79 5.935L52.4 136.9m-7.256 2.412 3.368-7.257m-8.703 4.492 2.493-4.334m-7.566 1.115 5.721-8.202" stroke-miterlimit="10"/><text fill="gray" font-family="Arial" font-size="10" font-weight="bold" text-decoration="normal" text-anchor="middle" dominant-baseline="text-before-edge" transform="rotate(-145.103 39.894 56.205)">180</text><path fill="none" stroke="gray" paint-order="fill stroke markers" d="m29.964 129.68 3.207-3.837m-7.644-.215 5.647-5.667m-9.714 1.245 3.825-3.221m-7.49-1.54 6.544-4.6m-9.782-.46 4.326-2.508m-7.11-2.817 9.056-4.242" stroke-miterlimit="10"/><text fill="gray" font-family="Arial" font-size="10" font-weight="bold" text-decoration="normal" text-anchor="middle" dominant-baseline="text-before-edge" transform="rotate(-115.103 42.783 44.287)">150</text><path fill="none" stroke="gray" paint-order="fill stroke markers" d="m9.464 100.514 4.695-1.719m-6.512-4.008 7.724-2.085m-9.035-3.779 4.923-.877M5.54 82.968l7.968-.712m-8.24-5.29 5-.009m-4.75-5.994 9.964.854" stroke-miterlimit="10"/><text fill="gray" font-family="Arial" font-size="10" font-weight="bold" text-decoration="normal" text-anchor="middle" dominant-baseline="text-before-edge" transform="rotate(-85.103 46.858 27.475)">120</text><path fill="none" stroke="gray" paint-order="fill stroke markers" d="m6.293 65.005 4.926.86m-3.636-6.728 7.731 2.057m-5.935-7.79 4.702 1.701m-2.413-7.256 7.257 3.368m-4.492-8.702 4.335 2.492m-1.116-7.565 8.202 5.72" stroke-miterlimit="10"/><text fill="gray" font-family="Arial" font-size="10" font-weight="bold" text-decoration="normal" text-anchor="middle" dominant-baseline="text-before-edge" transform="rotate(-55.103 54.293 -3.197)">90</text><path fill="none" stroke="gray" paint-order="fill stroke markers" d="m21.301 32.668 3.836 3.208m.215-7.644 5.667 5.646m-1.244-9.713 3.22 3.824m1.54-7.49 4.6 6.544m.46-9.782 2.509 4.326m2.816-7.11 4.243 9.056" stroke-miterlimit="10"/><text fill="gray" font-family="Arial" font-size="10" font-weight="bold" text-decoration="normal" text-anchor="middle" dominant-baseline="text-before-edge" transform="rotate(-25.103 77.431 -98.643)">60</text><path fill="none" stroke="gray" paint-order="fill stroke markers" d="m50.467 12.168 1.718 4.696m4.009-6.513 2.084 7.724m3.779-9.035.877 4.923m5.078-5.718.712 7.969m5.29-8.242.01 5m5.993-4.748-.854 9.963" stroke-miterlimit="10"/><text fill="gray" font-family="Arial" font-size="10" font-weight="bold" text-decoration="normal" text-anchor="middle" dominant-baseline="text-before-edge" transform="rotate(4.897 -173.084 934.764)">30</text><path fill="none" stroke="gray" paint-order="fill stroke markers" d="m85.975 8.997-.86 4.926m6.728-3.636-2.056 7.731m7.79-5.935-1.702 4.702m7.257-2.412-3.368 7.256m8.702-4.492-2.492 4.335" stroke-miterlimit="10"/><path fill="red" d="M72.138 74.842h3v3h-3z"/><path fill="#F0F" d="M111.539 18.356h3v3h-3z"/><path fill="red" d="M72.138 74.842h3v3h-3z"/><path fill="#F0F" d="M111.539 18.356h3v3h-3z"/></svg>
